icons/leaflet-light.svg

<svg width="256" height="256" viewBox="0 0 256 256" fill="none" xmlns="http://www.w3.org/2000/svg">
<path d="M196 0H60C26.8629 0 0 26.8629 0 60V196C0 229.137 26.8629 256 60 256H196C229.137 256 256 229.137 256 196V60C256 26.8629 229.137 0 196 0Z" fill="#F4F2ED"/>
<path d="M171.796 40.1048L99.0635 210.378L94.5374 205.827L171.796 40.1048ZM172.882 33.3378C170.079 37.8639 106.367 70.7267 87.2465 101.563C68.1259 132.406 62.6656 156.684 69.6031 179.516C76.5342 202.336 89.7904 201.313 97.3402 208.838C103.817 217.133 113.809 222.416 125.046 222.416C127.331 222.416 129.565 222.195 131.731 221.779L131.51 221.816C152.941 216.981 173.595 202.677 183.872 162.593C187.236 148.888 189.168 133.151 189.168 116.966C189.168 99.5748 186.94 82.7079 182.748 66.6299L183.058 68.0124C179.952 54.2511 176.455 42.6614 172.251 31.4125L172.882 33.3378Z" fill="#AFD35D"/>
</svg>

<svg xmlns="http://www.w3.org/2000/svg" width="256" height="256" fill="none"><path fill="#F4F2ED" d="M196 0H60C26.863 0 0 26.863 0 60v136c0 33.137 26.863 60 60 60h136c33.137 0 60-26.863 60-60V60c0-33.137-26.863-60-60-60"/><path fill="#AFD35D" d="M171.796 40.105 99.064 210.378l-4.527-4.551zm1.086-6.767c-2.803 4.526-66.515 37.389-85.636 68.225-19.12 30.843-24.58 55.121-17.643 77.953 6.931 22.82 20.187 21.797 27.737 29.322 6.477 8.295 16.469 13.578 27.706 13.578 2.285 0 4.519-.221 6.685-.637l-.221.037c21.431-4.835 42.085-19.139 52.362-59.223 3.364-13.705 5.296-29.442 5.296-45.627 0-17.391-2.228-34.258-6.42-50.336l.31 1.382c-3.106-13.76-6.603-25.35-10.807-36.6z"/></svg>
